Sources/FrostedUI/Resources/Icons.xcassets/chevronLeftToLineInBoxSize20.imageset/chevron-left-to-line-in-box-size-20.svg

<svg
  width="20"
  height="20"
  viewBox="0 0 20 20"
  fill="none"
  xmlns="http://www.w3.org/2000/svg"
  data-fui-icon="true"
>
  <path
    d="M1.75 13.25V6.75C1.75 3.98858 3.98858 1.75 6.75 1.75H13.25C16.0114 1.75 18.25 3.98858 18.25 6.75V13.25C18.25 16.0114 16.0114 18.25 13.25 18.25H6.75C3.98858 18.25 1.75 16.0114 1.75 13.25Z"
    stroke="currentColor"
    stroke-width="1.5"
    stroke-linecap="round"
    stroke-linejoin="round"
  />
  <path
    d="M7.75 6.75V13.2499M13.25 6.75L10.25 9.99995L13.25 13.2499"
    stroke="currentColor"
    stroke-width="1.5"
    stroke-linecap="round"
    stroke-linejoin="round"
  />
</svg>

<svg xmlns="http://www.w3.org/2000/svg" width="20" height="20" fill="none" data-fui-icon="true" viewBox="0 0 20 20"><path stroke="currentColor" stroke-linecap="round" stroke-linejoin="round" stroke-width="1.5" d="M1.75 13.25v-6.5a5 5 0 0 1 5-5h6.5a5 5 0 0 1 5 5v6.5a5 5 0 0 1-5 5h-6.5a5 5 0 0 1-5-5"/><path stroke="currentColor" stroke-linecap="round" stroke-linejoin="round" stroke-width="1.5" d="M7.75 6.75v6.5m5.5-6.5-3 3.25 3 3.25"/></svg>
